X:336
T:Lavou la femme a Colin
R:Bourree 2 temps
C:trad.
A:Morvan
O:France
M:2/4
L:1/8
Q:1/4=110
K:Bb
d>cde|dcBd|d>cde|dc Bz:|
d>eff|edcd|edcB|d2cz|d>cde|dcBd|d>cde|dc Bz||
W:
W:Lavo la femme  Colin
W:Colin y la demande (bis)
W:
W:Al est sur un' meule de foin
W:Qu'al y joue d'la jambe
W:
W:Lavo la femme  Colin
W:Colin y la demande.
